X:663
T:Cran Hill 
C:Joe Buchanan's Scottish Tome - Page 204.1
I:204 1
R:Reel
Z:Carl Allison
C:C. Sherrit
K:D
M:4/4
L:1/8
A2 | "D"dDDE "Adim"FDFG | "D"ABAF "F#dim"D2 cd | "G"e"Em"EEF "Em"GAGF | "G"E"E7"eed "A7"cABc | 
"D"dDDD "Adim"FDFG | "C#dim"ABAF "Bm"D2 ef | "Em"gfed "A7"cABc | "D"df"A7"ec "D"d2 :| 
de | "D"fdcd "A"Adcd | "D"fdcd "F#dim"A2 ef | "Em"ge^de "G"B"Em"ede | "A7"cdec  "C#"Ag"A7"fe | 
"D"fdcd "Adim"Adcd | "D"fdcd "F#dim"A2 ef | "Em"gfed "A7"cABc | "D"df"A7"ec "D"d2 :|

